X:1
T:Cantabo Domino in vita mea
T:Cantabo Domino in vita mea
T:Alessandro Grandi
C:Alessandro Grandi
%%score [ 1 2 3 4 ]
L:1/8
M:3/4
K:Ab
V:1 treble nm="S" snm="S"
V:2 treble nm="A" snm="A"
V:3 treble-8 nm="T" snm="T"
V:4 bass nm="B" snm="B"
V:1
 (FG) (AB) (cd) | e3 d c2 (dc) B3 A | A2 A2 z2 | (fe) (de) (fd) | e3 d c2 | (dc) (Bc) (dB) | %6
w: Can- * ta- * bo _|Do- mi- no in _ vi- ta|me- a,|can- * ta- * bo _|Do- mi- no,|can- * ta- * bo _|
 c3 B A2 (BA) G3 F | F2 F2 z2 | F2 G2 A2 | B2 c2 d2 | e2 c2 e2 | (f3 e/d/ c2) d2 c3 c | B4 z2 | %13
w: Do- mi- no in _ vi- ta|me- a,|in vi- ta|me- a can-|ta- bo, can-|ta- * * * bo Do- mi-|no.|
 (fe) (de) (fd) | (e3 d c2) | (ed) (cd) (ec) | (d3 c B2) | (f3 e d2 | c3 B) (A2 G2) G4 | =A4 z2 || %20
w: Al- * le- * lu- *|ja, _ _|al- * le- * lu- *|ja, _ _|al- * *|* * le- * lu-|ja.|
 F2 G2 A2 | B2 c2 d2 | (e>d) c2 e2 | (f3 e/d/ c2) d2 d3 c | d4 z2 | f3 f e d | e4 c2 | d3 d c B | %28
w: In vi- ta|me- a can-|ta- * bo, can-|ta- * * * bo Do- mi-|no,|psal- lam De- o|me- o,|psal- lam De- o|
 c2 c2 A2 | (Bc dc B2) A2 G3 G | A2 z2 A2 | (Bc dc B2) A2 G3 G | =A4 z2 | (f>e) (d>e) (f>d) | %34
w: me- o quam|di- * * * * u fu- e-|ro, quam|di- * * * * u fu- e-|ro.|Al- * le- * lu- *|
 (e3 d c2) | (e>d) (c>d) (e>c) | (d3 c B2) | (f3 e d2 | c3 B) (A2 G2) G4 | =A4 z2 || %40
w: ja, _ _|al- * le- * lu- *|ja, _ _|al- * *|* * le- * lu-|ja.|
[M:4/4] z2 A B c A c d | e2 e e e3 =d | e2 E2 G A B B | (B3 =A) B2 _d e | f2 ff f3 =e | %45
w: De- lec- ta- bor, de- lec-|ta- bor in Do- mi-|no in De- o Je- su|me- * o, de- lec-|ta- bor in Do- mi-|
 f2 c2 d c e d | c4 B4 | z2 c2 d3/2 c/ e3/2 d/ | c4 B4 |:[M:3/4] (f>e) (d>e) (f>d) | (e3 d c2) | %51
w: no, in De- o Je- su|me- o|in De- o Je- su|me- o.|Al- * le- * lu- *|ja, * *|
 (e>d) (c>d) (e>c) | (d3 c B2) | (f3 e d2 | c3 B) (A2 G2) G4 | =A4 z2 :| %56
w: al- * le- * lu- *|ja, * *|al- * *|* * le- * lu-|ja.|
V:2
 F2 F2 A2 | G3 G A2 A2 A2 G2 | E2 E2 z2 | A2 A2 A2 | A3 E E2 | F2 F2 F2 | A3 G F2 F2 F2 =E2 | %7
w: Can- ta- bo|Do- mi- no in vi- ta|me- a,|can- ta- bo|Do- mi- no,|can- ta- bo|Do- mi- no in vi- ta|
 F2 F2 z2 | F2 F2 F2 | F2 F2 B2 | A2 A2 A2 | (A3 G A2) B2 B2 =A2 | F4 z2 | A2 A2 A2 | (A4 E2) | %15
w: me- a,|in vi- ta|me- a can-|ta- bo, can-|ta- * * bo Do- mi-|no.|Al- le- lu-|ja, _|
 A2 A2 A2 | F6 | (B6 | A3 G) F4 (F2 =E2) | F4 z2 || F2 F2 F2 | F2 F2 B2 | A2 A2 A2 | %23
w: al- le- lu-|ja,|al-|* * le- lu- *|ja.|In vi- ta|me- a can-|ta- bo, can-|
 (A3 G A2) A2 _G2 E2 | F4 z2 | A3 A =G G | E4 A2 | F3 F F =G | A2 A2 F2 | (F4 =E2) F2 F2 =E2 | %30
w: ta- * * bo Do- mi-|no,|psal- lam De- o|me- o,|psal- lam De- o|me- o, quam|di- * u fu- e-|
 F2 z2 F2 | (F4 =E2) F2 F2 =E2 | F4 z2 | _A2 A2 A2 | (A4 E2) | A2 A2 A2 | F6 | (B6 | %38
w: ro, quam|di- * u fu- e-|ro.|Al- le- lu-|ja, _|al- le- lu-|ja,|al-|
 A3 G) F4 F2 =E2 | F4 z2 ||[M:4/4] A4 A4 | G2 A2 F2 F2 | G2 G2 G2 G2 | F4 F4 | B4 G2 G2 | %45
w: * * le- lu- *|ja.|De- lec-|ta- bor Do- mi-|no, in De- o|me- o,|in Do- mi-|
 =A2 A2 F2 F2 | =AG A2 F4 | =A4 F2 F2 | (=A>G A2) F4 |:[M:3/4] _A2 A2 A2 | (A4 E2) | A2 A2 A2 | %52
w: no, in De- o|me- * * o,|in De- o|me- * * o.|Al- le- lu-|ja _|al- le- lu-|
 F6 | (B6 | A3 G) F4 (F2 =E2) | F4 z2 :| %56
w: ja,|al-|* * le- lu- *|ja.|
V:3
 A2 c2 c2 | c3 c c2 f2 e2 e2 | c2 c2 z2 | d2 f2 d2 | c3 d e2 | d2 d2 d2 | f3 f c2 B2 d2 c2 | %7
w: Can- ta- bo|Do- mi- no in vi- ta|me- a,|can- ta- bo|Do- mi- no,|can- ta- bo|Do- mi- no in vi- ta|
 A2 A2 z2 | A2 B2 c2 | d2 e2 f2 | c2 e2 c2 | (d3 B f2) f2 f2 c2 | d4 z2 | d2 f2 d2 | (c3 d e2) | %15
w: me- a,|in vi- ta|me- a can-|ta- bo, can-|ta- * * bo Do- mi-|no.|Al- le- lu-|ja, _ _|
 c2 e2 c2 | (B3 c d2) | (d3 e f2 | c4) (c2 d2) c4 | c4 z2 || A2 B2 c2 | d2 e2 f2 | (c>d) e2 c2 | %23
w: al- le- lu-|ja, _ _|al- * *|* le- * lu-|ja.|In vi- ta|me- a can-|ta- * bo, can-|
 (d3 B A2) d2 B2 A2 | A4 z2 | d3 d B B | c4 e2 | d3 d d d | c2 c2 c2 | (f2 d2 c2) f2 d2 c2 | %30
w: ta- * * bo Do- mi-|no,|psal- lam De- o|me- o,|psal- lam De- o|me- o, quam|di- * * u fu- e-|
 c2 z2 c2 | (f2 d2 c2) f2 d2 c2 | c4 z2 | d2 f2 d2 | (c3 d e2) | c2 e2 c2 | (B3 c d2) | (d3 e f2 | %38
w: ro, quam|di- * * u fu- e-|ro.|Al- le- lu-|ja, _ _|al- le- lu-|ja, _ _|al- * *|
 c4) (c2 d2) c4 | c4 z2 ||[M:4/4] c4 c4 | c2 c2 B2 B2 | B2 B2 B2 e2 | c4 d4 | d4 c2 c2 | %45
w: * le- * lu-|ja.|De- lec-|ta- bor Do- mi-|no, in De- o|me- o,|in Do- mi-|
 c2 c2 B2 d2 | f4 d4 | c4 B2 d2 | f4 =d4 |:[M:3/4] d2 f2 d2 | (c3 d e2) | c2 e2 c2 | (B3 c d2) | %53
w: no, in De- o|me- o,|in De- o|me- o.|Al- le- lu-|ja, _ _|al- le- lu-|ja, _ _|
 (d3 e f2 | c4) (c2 d2) c4 | c4 z2 :| %56
w: al- * *|* le _ lu-|ja.|
V:4
 F,2 F,2 F,2 | C,3 C, F,2 D,2 E,2 E,2 | A,2 A,,2 z2 | D,2 D,2 D,2 | A,3 A, A,2 | B,2 B,2 B,2 | %6
w: Can- ta- bo|Do- mi- no in vi- ta|me- a,|can- ta- bo|Do- mi- no,|can- ta- bo|
 F,3 F, F,2 D,2 B,,2 C,2 | F,2 F,2 z2 | F,2 F,2 F,2 | B,,2 B,,2 B,,2 | A,,2 A,,2 A,,2 | %11
w: Do- mi- no in vi- ta|me- a,|in vi- ta|me- a can-|ta- bo, can-|
 (D,3 E, F,2) B,,2 F,2 F,2 | B,,4 z2 | D,2 D,2 D,2 | A,6 | A,,2 A,,2 A,,2 | B,,6 | (B,,6 | %18
w: ta- * * bo Do- mi-|no.|Al- le- lu-|ja,|al- le- lu-|ja,|al-|
 F,4) (F,2 B,,2) C,4 | F,4 z2 || F,2 F,2 F,2 | B,,2 B,,2 B,,2 | A,,2 A,,2 A,,2 | %23
w: * le- * lu-|ja.|In vi- ta|me- a can-|ta- bo, can-|
 (D,3 E, A,2) F,2 _G,2 A,2 | D,4 z2 | D,3 D, E, E, | A,4 A,2 | B,3 B, B, B, | F,2 F,2 F,2 | %29
w: ta- * * bo Do- mi-|no,|psal- lam De- o|me- o,|psal- lam De- o|me- o, quam|
 (D,2 B,,2 C,2) D,2 B,,2 C,2 | F,2 z2 F,2 | (D,2 B,,2 C,2) D,2 B,,2 C,2 | F,4 z2 | D,2 D,2 D,2 | %34
w: di- * * u fu- e-|ro, quam|di- * * u fu- e-|ro.|Al- le- lu-|
 A,6 | A,,2 A,,2 A,,2 | B,,6 | (B,,6 | F,4) (F,2 B,,2) C,4 | F,4 z2 ||[M:4/4] F,4 F,4 | %41
w: ja,|al- le- lu-|ja,|al-|* le- * lu-|ja.|De- lec-|
 C,2 A,,2 B,,2 B,,2 | E,2 E,2 E,2 E,2 | F,4 B,,4 | B,,4 C,2 C,2 | F,2 F,2 D,2 B,,2 | F,4 B,,4 | %47
w: ta- bor Do- mi-|no, in De- o|me- o,|in Do- mi-|no, in De- o|me- o,|
 F,4 D,2 B,,2 | F,4 B,,4 |:[M:3/4] D,2 D,2 D,2 | A,6 | A,,2 A,,2 A,,2 | B,,6 | (B,,6 | %54
w: in De- o|me- o.|Al- le- lu-|ja,|al- le- lu-|ja,|al-|
 F,4) (F,2 B,,2) C,4 | F,4 z2 :| %56
w: * le- * lu-|ja.|

